src/gui/emoticons/peace.svg

<svg xmlns="http://www.w3.org/2000/svg" xmlns:xlink="http://www.w3.org/1999/xlink" width="16pt" height="16pt" version="1.1" viewBox="0 0 16 16"><defs><radialGradient id="radial0" cx="38.607" cy="81.51" r="35.58" fx="38.607" fy="81.51" gradientTransform="matrix(0.117388,0.029275,-0.038225,0.164275,6.110125,-4.331375)" gradientUnits="userSpaceOnUse"><stop offset=".243" style="stop-color:#cca47a;stop-opacity:1"/><stop offset=".688" style="stop-color:#e0bb95;stop-opacity:1"/><stop offset=".994" style="stop-color:#cca47a;stop-opacity:1"/></radialGradient><linearGradient id="linear0" x1="75.52" x2="75.52" y1="23.222" y2="90.835" gradientTransform="matrix(0.125,0,0,0.125,0,0)" gradientUnits="userSpaceOnUse"><stop offset="0" style="stop-color:#e0bb95;stop-opacity:1"/><stop offset=".411" style="stop-color:#deb892;stop-opacity:1"/><stop offset=".743" style="stop-color:#d6b088;stop-opacity:1"/><stop offset="1" style="stop-color:#cca47a;stop-opacity:1"/></linearGradient><radialGradient id="radial1" cx="-154.89" cy="3.273" r="13.987" fx="-154.89" fy="3.273" gradientTransform="matrix(0.013025,0.123962,-0.0828125,0.009175,8.56225,26.11)" gradientUnits="userSpaceOnUse"><stop offset="0" style="stop-color:#e0bb95;stop-opacity:1"/><stop offset=".409" style="stop-color:#deb892;stop-opacity:1"/><stop offset=".739" style="stop-color:#d6b088;stop-opacity:1"/><stop offset=".995" style="stop-color:#cca47a;stop-opacity:1"/></radialGradient><radialGradient id="radial2" cx="-286.65" cy="-42.464" r="12.587" fx="-286.65" fy="-42.464" gradientTransform="matrix(0.105725,-0.02225,0.0247625,0.117638,35.6075,6.50825)" gradientUnits="userSpaceOnUse"><stop offset="0" style="stop-color:#e0bb95;stop-opacity:1"/><stop offset=".411" style="stop-color:#deb892;stop-opacity:1"/><stop offset=".743" style="stop-color:#d6b088;stop-opacity:1"/><stop offset="1" style="stop-color:#cca47a;stop-opacity:1"/></radialGradient><clipPath id="clip1"><path d="M 6 8 L 13 8 L 13 13 L 6 13 Z M 6 8"/></clipPath><clipPath id="clip2"><path d="M 6.855469 8.792969 C 5.945312 8.792969 5.796875 9.734375 6.015625 10.277344 C 6.230469 10.816406 6.875 11.191406 7.449219 11.140625 C 9.511719 10.953125 10.027344 11.257812 10.296875 11.816406 C 10.667969 12.585938 11.109375 12.574219 11.5625 12.574219 C 12.375 12.574219 12.253906 11.378906 12.28125 10.246094 C 12.3125 8.96875 9.945312 8.496094 9.945312 8.496094 C 9.945312 8.496094 7.289062 8.792969 6.855469 8.792969 Z M 6.855469 8.792969"/></clipPath><radialGradient id="radial3" cx="-89.658" cy="231.79" r="51.951" fx="-89.658" fy="231.79" gradientTransform="matrix(0.09945,0,0,0.108637,16.715,-15.2875)" gradientUnits="userSpaceOnUse"><stop offset="0" style="stop-color:#e0bb95;stop-opacity:1"/><stop offset=".411" style="stop-color:#deb892;stop-opacity:1"/><stop offset=".743" style="stop-color:#d6b088;stop-opacity:1"/><stop offset="1" style="stop-color:#cca47a;stop-opacity:1"/></radialGradient><clipPath id="clip3"><path d="M 5 8 L 13 8 L 13 13 L 5 13 Z M 5 8"/></clipPath><clipPath id="clip4"><path d="M 6.855469 8.792969 C 5.945312 8.792969 5.796875 9.734375 6.015625 10.277344 C 6.230469 10.816406 6.875 11.191406 7.449219 11.140625 C 9.511719 10.953125 10.027344 11.257812 10.296875 11.816406 C 10.667969 12.585938 11.109375 12.574219 11.5625 12.574219 C 12.375 12.574219 12.253906 11.378906 12.28125 10.246094 C 12.3125 8.96875 9.945312 8.496094 9.945312 8.496094 C 9.945312 8.496094 7.289062 8.792969 6.855469 8.792969 Z M 6.855469 8.792969"/></clipPath></defs><g id="surface1"><path style="stroke:none;fill-rule:nonzero;fill:url(#radial0)" d="M 7.660156 15.339844 C 4.632812 15.339844 3.160156 13.734375 3.160156 10.425781 L 3.160156 7.640625 C 3.160156 7.546875 3.167969 7.484375 3.171875 7.449219 C 3.261719 7.503906 3.417969 7.644531 3.539062 7.75 C 3.953125 8.121094 4.515625 8.628906 5.171875 8.628906 L 5.183594 8.628906 C 5.207031 8.628906 7.496094 8.457031 9.359375 8.457031 C 11.261719 8.457031 11.59375 8.632812 11.648438 8.6875 C 12.199219 9.210938 12.511719 9.566406 12.511719 10.671875 C 12.511719 12.929688 11.238281 15.339844 7.660156 15.339844 Z M 7.660156 15.339844"/><path style="stroke:none;fill-rule:nonzero;fill:#ba8f63;fill-opacity:1" d="M 3.347656 7.832031 C 3.371094 7.855469 3.390625 7.871094 3.410156 7.890625 C 3.847656 8.28125 4.445312 8.816406 5.171875 8.816406 C 5.179688 8.816406 5.1875 8.816406 5.199219 8.816406 C 5.222656 8.816406 7.503906 8.644531 9.359375 8.644531 C 11.125 8.644531 11.476562 8.800781 11.527344 8.828125 C 12.050781 9.328125 12.324219 9.644531 12.324219 10.671875 C 12.324219 11.878906 11.949219 12.972656 11.265625 13.75 C 10.449219 14.679688 9.238281 15.152344 7.660156 15.152344 C 6.066406 15.152344 4.949219 14.710938 4.242188 13.800781 C 3.648438 13.03125 3.347656 11.898438 3.347656 10.429688 L 3.347656 7.832031 M 3.125 7.238281 C 3.027344 7.238281 2.972656 7.351562 2.972656 7.640625 L 2.972656 10.425781 C 2.972656 13.234375 4.007812 15.527344 7.660156 15.527344 C 11.3125 15.527344 12.699219 13.066406 12.699219 10.671875 C 12.699219 9.519531 12.367188 9.113281 11.777344 8.550781 C 11.554688 8.335938 10.535156 8.269531 9.359375 8.269531 C 7.464844 8.269531 5.171875 8.441406 5.171875 8.441406 C 4.242188 8.441406 3.449219 7.238281 3.125 7.238281 Z M 3.125 7.238281"/><path style="stroke:none;fill-rule:nonzero;fill:url(#linear0)" d="M 10.875 9.851562 C 10.75 9.851562 10.753906 9.847656 10.699219 9.839844 C 10.292969 9.777344 9.953125 9.480469 9.84375 9.082031 C 9.824219 9.007812 9.757812 8.953125 9.683594 8.945312 C 9.675781 8.945312 9.664062 8.945312 9.65625 8.945312 C 9.589844 8.945312 9.527344 8.980469 9.492188 9.039062 C 9.347656 9.292969 9.109375 9.46875 8.824219 9.535156 C 8.746094 9.550781 8.667969 9.5625 8.589844 9.5625 C 8.101562 9.5625 7.683594 9.230469 7.574219 8.757812 L 5.992188 1.9375 C 5.863281 1.375 6.214844 0.816406 6.773438 0.6875 C 6.851562 0.667969 6.929688 0.660156 7.007812 0.660156 C 7.496094 0.660156 7.914062 0.988281 8.023438 1.464844 L 9.566406 7.589844 C 9.589844 7.675781 9.664062 7.75 9.75 7.75 L 9.757812 7.75 C 9.847656 7.75 9.921875 7.664062 9.9375 7.574219 L 10.84375 1.960938 C 10.921875 1.457031 11.363281 1.074219 11.871094 1.074219 C 11.921875 1.074219 11.980469 1.074219 12.03125 1.082031 C 12.597656 1.171875 12.988281 1.703125 12.902344 2.269531 L 11.890625 8.96875 C 11.808594 9.472656 11.375 9.851562 10.875 9.851562 Z M 10.875 9.851562"/><path style="stroke:none;fill-rule:nonzero;fill:#ba8f63;fill-opacity:1" d="M 7.011719 0.847656 C 7.410156 0.847656 7.75 1.117188 7.839844 1.507812 C 7.839844 1.511719 7.84375 1.511719 7.84375 1.515625 L 9.386719 7.621094 C 9.429688 7.789062 9.578125 7.902344 9.75 7.902344 L 9.765625 7.902344 C 9.945312 7.894531 10.089844 7.765625 10.121094 7.585938 L 11.027344 1.980469 C 11.089844 1.566406 11.453125 1.253906 11.871094 1.253906 C 11.914062 1.253906 11.957031 1.257812 12 1.265625 C 12.464844 1.335938 12.789062 1.773438 12.714844 2.238281 L 11.683594 8.9375 C 11.621094 9.347656 11.257812 9.660156 10.84375 9.660156 C 10.796875 9.660156 10.753906 9.65625 10.710938 9.652344 C 10.378906 9.601562 10.105469 9.355469 10.015625 9.03125 C 9.976562 8.882812 9.855469 8.773438 9.703125 8.757812 C 9.6875 8.753906 9.671875 8.753906 9.65625 8.753906 C 9.523438 8.753906 9.398438 8.824219 9.332031 8.941406 C 9.210938 9.152344 9.015625 9.296875 8.785156 9.351562 C 8.722656 9.363281 8.65625 9.371094 8.589844 9.371094 C 8.191406 9.371094 7.851562 9.101562 7.761719 8.710938 L 6.175781 1.894531 C 6.070312 1.433594 6.355469 0.976562 6.816406 0.867188 C 6.878906 0.855469 6.945312 0.847656 7.011719 0.847656 M 7.011719 0.472656 C 6.917969 0.472656 6.824219 0.480469 6.730469 0.503906 C 6.070312 0.65625 5.660156 1.316406 5.8125 1.980469 L 7.390625 8.796875 C 7.523438 9.363281 8.03125 9.75 8.589844 9.75 C 8.679688 9.75 8.773438 9.738281 8.867188 9.714844 C 9.214844 9.636719 9.492188 9.417969 9.65625 9.128906 C 9.777344 9.585938 10.160156 9.949219 10.652344 10.023438 C 10.71875 10.035156 10.78125 10.039062 10.84375 10.039062 C 11.4375 10.039062 11.960938 9.605469 12.054688 8.996094 L 13.085938 2.296875 C 13.191406 1.625 12.730469 1 12.058594 0.894531 C 11.996094 0.886719 11.933594 0.882812 11.871094 0.882812 C 11.273438 0.882812 10.75 1.316406 10.65625 1.921875 L 9.75 7.527344 L 8.207031 1.421875 C 8.074219 0.855469 7.570312 0.472656 7.011719 0.472656 Z M 7.011719 0.472656"/><path style="stroke:none;fill-rule:nonzero;fill:url(#radial1)" d="M 6.464844 9.894531 C 5.90625 9.894531 5.449219 9.476562 5.398438 8.921875 L 5.214844 6.867188 C 5.191406 6.582031 5.277344 6.304688 5.460938 6.085938 C 5.644531 5.867188 5.902344 5.730469 6.1875 5.703125 C 6.21875 5.703125 6.25 5.699219 6.285156 5.699219 C 6.839844 5.699219 7.296875 6.117188 7.347656 6.671875 L 7.53125 8.730469 C 7.554688 9.015625 7.46875 9.292969 7.285156 9.511719 C 7.101562 9.730469 6.84375 9.863281 6.5625 9.890625 C 6.527344 9.894531 6.496094 9.894531 6.464844 9.894531 Z M 6.464844 9.894531"/><path style="stroke:none;fill-rule:nonzero;fill:#ba8f63;fill-opacity:1" d="M 6.28125 5.886719 C 6.734375 5.886719 7.117188 6.238281 7.160156 6.691406 L 7.34375 8.746094 C 7.363281 8.980469 7.292969 9.210938 7.140625 9.390625 C 6.992188 9.570312 6.777344 9.683594 6.542969 9.703125 C 6.515625 9.703125 6.488281 9.707031 6.464844 9.707031 C 6.003906 9.707031 5.628906 9.359375 5.585938 8.902344 L 5.402344 6.847656 C 5.382812 6.613281 5.453125 6.382812 5.605469 6.203125 C 5.753906 6.023438 5.96875 5.910156 6.203125 5.890625 C 6.230469 5.890625 6.253906 5.886719 6.28125 5.886719 M 6.28125 5.511719 C 6.242188 5.511719 6.207031 5.515625 6.167969 5.515625 C 5.476562 5.578125 4.964844 6.191406 5.027344 6.882812 L 5.210938 8.9375 C 5.269531 9.589844 5.820312 10.082031 6.464844 10.082031 C 6.5 10.082031 6.539062 10.082031 6.578125 10.078125 C 7.269531 10.015625 7.78125 9.40625 7.71875 8.714844 L 7.535156 6.660156 C 7.472656 6.003906 6.925781 5.511719 6.28125 5.511719 Z M 6.28125 5.511719"/><path style="stroke:none;fill-rule:nonzero;fill:url(#radial2)" d="M 4.4375 10.238281 C 3.9375 10.238281 3.5 9.886719 3.398438 9.398438 L 3.109375 8.023438 C 3.050781 7.746094 3.105469 7.464844 3.261719 7.226562 C 3.414062 6.988281 3.652344 6.828125 3.929688 6.765625 C 4.003906 6.753906 4.078125 6.746094 4.148438 6.746094 C 4.648438 6.746094 5.085938 7.101562 5.1875 7.585938 L 5.476562 8.960938 C 5.535156 9.238281 5.480469 9.519531 5.328125 9.757812 C 5.171875 9.996094 4.933594 10.160156 4.65625 10.21875 C 4.582031 10.234375 4.507812 10.238281 4.4375 10.238281 Z M 4.4375 10.238281"/><path style="stroke:none;fill-rule:nonzero;fill:#ba8f63;fill-opacity:1" d="M 4.148438 6.933594 C 4.558594 6.933594 4.917969 7.226562 5.003906 7.625 L 5.292969 9 C 5.339844 9.226562 5.296875 9.460938 5.167969 9.65625 C 5.042969 9.851562 4.84375 9.984375 4.617188 10.035156 C 4.554688 10.046875 4.496094 10.050781 4.433594 10.050781 C 4.023438 10.050781 3.667969 9.761719 3.582031 9.359375 L 3.292969 7.984375 C 3.195312 7.515625 3.496094 7.050781 3.96875 6.953125 C 4.027344 6.9375 4.089844 6.933594 4.148438 6.933594 M 4.148438 6.558594 C 4.066406 6.558594 3.980469 6.566406 3.890625 6.585938 C 3.214844 6.726562 2.785156 7.390625 2.925781 8.0625 L 3.214844 9.4375 C 3.339844 10.023438 3.859375 10.425781 4.4375 10.425781 C 4.519531 10.425781 4.609375 10.417969 4.695312 10.398438 C 5.371094 10.257812 5.800781 9.597656 5.660156 8.921875 L 5.371094 7.546875 C 5.246094 6.960938 4.726562 6.558594 4.148438 6.558594 Z M 4.148438 6.558594"/><path style="stroke:none;fill-rule:nonzero;fill:#ba8f63;fill-opacity:1" d="M 10.984375 11.238281 C 10.523438 11.101562 10.011719 11.050781 9.566406 11.269531 C 9.101562 11.496094 8.867188 11.949219 8.683594 12.402344 C 8.589844 12.625 8.953125 12.722656 9.042969 12.503906 C 9.199219 12.128906 9.394531 11.746094 9.789062 11.582031 C 10.144531 11.4375 10.527344 11.492188 10.886719 11.601562 C 11.117188 11.667969 11.21875 11.304688 10.984375 11.238281 Z M 10.984375 11.238281"/><g clip-path="url(#clip1)" clip-rule="nonzero"><g clip-path="url(#clip2)" clip-rule="nonzero"><path style="stroke:none;fill-rule:nonzero;fill:url(#radial3)" d="M 11.671875 12.941406 C 11.300781 12.933594 10.804688 12.4375 10.464844 11.734375 C 10.175781 11.132812 9.628906 10.894531 8.515625 10.894531 C 8.203125 10.894531 7.847656 10.914062 7.433594 10.953125 C 7.402344 10.953125 7.371094 10.957031 7.339844 10.957031 C 6.863281 10.957031 6.355469 10.625 6.1875 10.203125 C 6.082031 9.945312 6.074219 9.535156 6.261719 9.261719 C 6.386719 9.074219 6.585938 8.976562 6.855469 8.976562 C 7.269531 8.976562 9.613281 8.71875 9.933594 8.683594 C 10.789062 8.886719 12.921875 9.585938 13.011719 10.507812 C 13.105469 11.507812 12.980469 12.203125 12.632812 12.585938 C 12.417969 12.824219 12.113281 12.9375 11.710938 12.9375 Z M 11.671875 12.941406"/></g></g><g clip-path="url(#clip3)" clip-rule="nonzero"><g clip-path="url(#clip4)" clip-rule="nonzero"><path style="stroke:none;fill-rule:nonzero;fill:#ba8f63;fill-opacity:1" d="M 9.921875 8.875 C 10.113281 8.921875 10.742188 9.089844 11.378906 9.359375 C 12.261719 9.738281 12.789062 10.164062 12.824219 10.527344 C 12.914062 11.46875 12.804688 12.121094 12.496094 12.460938 C 12.316406 12.65625 12.058594 12.753906 11.710938 12.753906 L 11.675781 12.753906 C 11.421875 12.746094 10.964844 12.335938 10.636719 11.652344 C 10.3125 10.980469 9.699219 10.707031 8.515625 10.707031 C 8.199219 10.707031 7.835938 10.726562 7.417969 10.765625 C 7.390625 10.769531 7.367188 10.769531 7.339844 10.769531 C 6.933594 10.769531 6.503906 10.492188 6.359375 10.136719 C 6.277344 9.925781 6.265625 9.585938 6.414062 9.367188 C 6.507812 9.234375 6.648438 9.167969 6.855469 9.167969 C 7.269531 9.167969 9.445312 8.925781 9.921875 8.875 M 9.945312 8.492188 C 9.945312 8.492188 7.289062 8.792969 6.855469 8.792969 C 5.945312 8.792969 5.796875 9.734375 6.015625 10.277344 C 6.21875 10.78125 6.796875 11.144531 7.339844 11.144531 C 7.378906 11.144531 7.414062 11.144531 7.449219 11.140625 C 7.863281 11.101562 8.214844 11.082031 8.515625 11.082031 C 9.707031 11.082031 10.082031 11.367188 10.296875 11.816406 C 10.664062 12.585938 11.214844 13.121094 11.667969 13.128906 L 11.707031 13.128906 C 13.214844 13.128906 13.300781 11.617188 13.195312 10.492188 C 13.074219 9.21875 9.945312 8.492188 9.945312 8.492188 Z M 9.945312 8.492188"/></g></g></g></svg>

<svg xmlns="http://www.w3.org/2000/svg" width="16pt" height="16pt" viewBox="0 0 16 16"><defs><radialGradient id="a" cx="38.607" cy="81.51" r="35.58" fx="38.607" fy="81.51" gradientTransform="matrix(.11739 .02927 -.03823 .16428 6.11 -4.331)" gradientUnits="userSpaceOnUse"><stop offset=".243" style="stop-color:#cca47a;stop-opacity:1"/><stop offset=".688" style="stop-color:#e0bb95;stop-opacity:1"/><stop offset=".994" style="stop-color:#cca47a;stop-opacity:1"/></radialGradient><radialGradient id="c" cx="-154.89" cy="3.273" r="13.987" fx="-154.89" fy="3.273" gradientTransform="matrix(.01303 .12396 -.08281 .00918 8.562 26.11)" gradientUnits="userSpaceOnUse"><stop offset="0" style="stop-color:#e0bb95;stop-opacity:1"/><stop offset=".409" style="stop-color:#deb892;stop-opacity:1"/><stop offset=".739" style="stop-color:#d6b088;stop-opacity:1"/><stop offset=".995" style="stop-color:#cca47a;stop-opacity:1"/></radialGradient><radialGradient id="d" cx="-286.65" cy="-42.464" r="12.587" fx="-286.65" fy="-42.464" gradientTransform="matrix(.10572 -.02225 .02476 .11764 35.608 6.508)" gradientUnits="userSpaceOnUse"><stop offset="0" style="stop-color:#e0bb95;stop-opacity:1"/><stop offset=".411" style="stop-color:#deb892;stop-opacity:1"/><stop offset=".743" style="stop-color:#d6b088;stop-opacity:1"/><stop offset="1" style="stop-color:#cca47a;stop-opacity:1"/></radialGradient><radialGradient id="g" cx="-89.658" cy="231.79" r="51.951" fx="-89.658" fy="231.79" gradientTransform="matrix(.09945 0 0 .10864 16.715 -15.287)" gradientUnits="userSpaceOnUse"><stop offset="0" style="stop-color:#e0bb95;stop-opacity:1"/><stop offset=".411" style="stop-color:#deb892;stop-opacity:1"/><stop offset=".743" style="stop-color:#d6b088;stop-opacity:1"/><stop offset="1" style="stop-color:#cca47a;stop-opacity:1"/></radialGradient><clipPath id="e"><path d="M6 8h7v5H6Zm0 0"/></clipPath><clipPath id="f"><path d="M6.855 8.793c-.91 0-1.058.941-.84 1.484.215.54.86.914 1.434.864 2.063-.188 2.578.117 2.848.675.371.77.812.758 1.265.758.813 0 .692-1.195.72-2.328.03-1.277-2.337-1.75-2.337-1.75s-2.656.297-3.09.297m0 0"/></clipPath><clipPath id="h"><path d="M5 8h8v5H5Zm0 0"/></clipPath><clipPath id="i"><path d="M6.855 8.793c-.91 0-1.058.941-.84 1.484.215.54.86.914 1.434.864 2.063-.188 2.578.117 2.848.675.371.77.812.758 1.265.758.813 0 .692-1.195.72-2.328.03-1.277-2.337-1.75-2.337-1.75s-2.656.297-3.09.297m0 0"/></clipPath><linearGradient id="b" x1="75.52" x2="75.52" y1="23.222" y2="90.835" gradientTransform="scale(.125)" gradientUnits="userSpaceOnUse"><stop offset="0" style="stop-color:#e0bb95;stop-opacity:1"/><stop offset=".411" style="stop-color:#deb892;stop-opacity:1"/><stop offset=".743" style="stop-color:#d6b088;stop-opacity:1"/><stop offset="1" style="stop-color:#cca47a;stop-opacity:1"/></linearGradient></defs><path d="M7.66 15.34c-3.027 0-4.5-1.606-4.5-4.914V7.64c0-.094.008-.157.012-.192.09.055.246.196.367.301.414.371.977.879 1.633.879h.012c.023 0 2.312-.172 4.175-.172 1.903 0 2.235.176 2.29.23.55.524.863.88.863 1.985 0 2.258-1.274 4.668-4.852 4.668m0 0" style="stroke:none;fill-rule:nonzero;fill:url(#a)"/><path d="m3.348 7.832.062.059c.438.39 1.035.925 1.762.925h.027c.024 0 2.305-.171 4.16-.171 1.766 0 2.118.156 2.168.183.524.5.797.817.797 1.844 0 1.207-.375 2.3-1.058 3.078-.817.93-2.028 1.402-3.606 1.402-1.594 0-2.71-.441-3.418-1.351-.594-.77-.894-1.903-.894-3.371zm-.223-.594c-.098 0-.152.114-.152.403v2.785c0 2.808 1.035 5.101 4.687 5.101s5.04-2.46 5.04-4.855c0-1.152-.333-1.559-.923-2.121-.222-.215-1.242-.281-2.418-.281-1.894 0-4.187.171-4.187.171-.93 0-1.723-1.203-2.047-1.203m0 0" style="stroke:none;fill-rule:nonzero;fill:#ba8f63;fill-opacity:1"/><path d="M10.875 9.852c-.125 0-.121-.004-.176-.012a1.06 1.06 0 0 1-.855-.758.19.19 0 0 0-.16-.137h-.028a.19.19 0 0 0-.164.094 1.03 1.03 0 0 1-.902.524c-.488 0-.906-.333-1.016-.805l-1.582-6.82a1.043 1.043 0 0 1 2.031-.473L9.566 7.59c.024.086.098.16.184.16h.008c.09 0 .164-.086.18-.176l.906-5.613c.078-.504.52-.887 1.027-.887.05 0 .11 0 .16.008.567.09.957.621.871 1.188l-1.011 6.699a1.045 1.045 0 0 1-1.016.883m0 0" style="stroke:none;fill-rule:nonzero;fill:url(#b)"/><path d="M7.012.848c.398 0 .738.27.828.66 0 .004.004.004.004.008L9.387 7.62a.37.37 0 0 0 .363.281h.016a.375.375 0 0 0 .355-.316l.906-5.606a.86.86 0 0 1 .844-.726.852.852 0 0 1 .844.984l-1.031 6.7a.86.86 0 0 1-.973.714.86.86 0 0 1-.695-.62.36.36 0 0 0-.313-.274q-.023-.005-.047-.004a.37.37 0 0 0-.324.187.85.85 0 0 1-.547.41q-.095.019-.195.02a.844.844 0 0 1-.828-.66L6.176 1.895a.86.86 0 0 1 .64-1.028q.096-.019.196-.02m0-.374a1.23 1.23 0 0 0-1.2 1.508l1.579 6.816c.132.566.64.953 1.199.953q.136 0 .277-.035c.348-.078.625-.297.79-.586a1.22 1.22 0 0 0 1.187.91c.594 0 1.117-.434 1.21-1.043l1.032-6.7A1.228 1.228 0 0 0 11.87.884a1.23 1.23 0 0 0-1.215 1.039L9.75 7.527 8.207 1.422a1.23 1.23 0 0 0-1.195-.95m0 0" style="stroke:none;fill-rule:nonzero;fill:#ba8f63;fill-opacity:1"/><path d="M6.465 9.895a1.064 1.064 0 0 1-1.067-.973l-.183-2.055a1.078 1.078 0 0 1 .973-1.164c.03 0 .062-.004.097-.004.555 0 1.012.418 1.063.973L7.53 8.73a1.07 1.07 0 0 1-.968 1.16q-.053.006-.098.005m0 0" style="stroke:none;fill-rule:nonzero;fill:url(#c)"/><path d="M6.281 5.887a.89.89 0 0 1 .88.804l.183 2.055a.88.88 0 0 1-.203.645.87.87 0 0 1-.598.312c-.027 0-.055.004-.078.004a.88.88 0 0 1-.88-.805l-.183-2.054a.88.88 0 0 1 .203-.645.87.87 0 0 1 .598-.312c.027 0 .05-.004.078-.004m0-.375q-.056.002-.113.004a1.26 1.26 0 0 0-1.14 1.367l.183 2.055a1.26 1.26 0 0 0 1.254 1.144q.054.001.113-.004a1.257 1.257 0 0 0 1.14-1.363L7.536 6.66a1.263 1.263 0 0 0-1.254-1.148m0 0" style="stroke:none;fill-rule:nonzero;fill:#ba8f63;fill-opacity:1"/><path d="M4.438 10.238c-.5 0-.938-.351-1.04-.84L3.11 8.023a1.05 1.05 0 0 1 .153-.796c.152-.239.39-.399.668-.461q.112-.019.218-.02c.5 0 .938.356 1.04.84l.289 1.375a1.06 1.06 0 0 1-.82 1.258 1 1 0 0 1-.22.02m0 0" style="stroke:none;fill-rule:nonzero;fill:url(#d)"/><path d="M4.148 6.934c.41 0 .77.293.856.691L5.293 9a.877.877 0 0 1-.676 1.035 1 1 0 0 1-.183.016.87.87 0 0 1-.852-.692l-.289-1.375a.872.872 0 0 1 .855-1.05m0-.375q-.123-.002-.257.027a1.247 1.247 0 0 0-.965 1.476l.289 1.376a1.25 1.25 0 0 0 1.48.96c.676-.14 1.106-.8.965-1.476l-.289-1.375a1.25 1.25 0 0 0-1.223-.988M10.984 11.238c-.46-.136-.972-.187-1.418.032-.464.226-.699.68-.882 1.132-.094.223.27.32.359.102.156-.375.352-.758.746-.922.356-.145.738-.09 1.098.02.23.066.332-.297.097-.364m0 0" style="stroke:none;fill-rule:nonzero;fill:#ba8f63;fill-opacity:1"/><g clip-path="url(#e)"><g clip-path="url(#f)"><path d="M11.672 12.941c-.371-.007-.867-.504-1.207-1.207-.29-.601-.836-.84-1.95-.84-.312 0-.667.02-1.081.06q-.048.002-.094.003c-.477 0-.985-.332-1.152-.754-.106-.258-.114-.668.074-.941q.189-.284.593-.285c.415 0 2.758-.258 3.079-.293.855.203 2.988.902 3.078 1.824q.14 1.502-.38 2.078c-.214.238-.519.351-.921.351Zm0 0" style="stroke:none;fill-rule:nonzero;fill:url(#g)"/></g></g><g clip-path="url(#h)"><g clip-path="url(#i)"><path d="M9.922 8.875c.191.047.82.215 1.457.484.883.38 1.41.805 1.445 1.168.09.942-.02 1.594-.328 1.934-.18.195-.437.293-.785.293h-.035c-.254-.008-.711-.418-1.04-1.102-.323-.672-.937-.945-2.12-.945-.317 0-.68.02-1.098.059-.027.004-.05.004-.078.004-.406 0-.836-.278-.98-.633-.083-.211-.094-.551.054-.77.094-.133.234-.199.441-.199.415 0 2.59-.242 3.067-.293m.023-.383s-2.656.301-3.09.301c-.91 0-1.058.941-.84 1.484.204.504.782.868 1.325.868q.057.001.11-.004c.413-.04.765-.059 1.066-.059 1.191 0 1.566.285 1.78.734.368.77.919 1.305 1.372 1.313h.039c1.508 0 1.594-1.512 1.488-2.637-.12-1.273-3.25-2-3.25-2m0 0" style="stroke:none;fill-rule:nonzero;fill:#ba8f63;fill-opacity:1"/></g></g></svg>
